public/logos/pentaho.svg

<svg height="543" viewBox="47.71126037 35.82 381.14207297 108.26" width="2500" xmlns="http://www.w3.org/2000/svg"><path d="m362.54 80.24c9.08-8.82 23.7-3.89 23.94 9.45q.18 10.08-.06 20.18-.01.63-.65.63l-6.89-.01q-.63 0-.63-.62 0-8.99-.04-17.84c-.02-4.55-1.75-8.88-6.69-9.39-7.55-.79-9.34 4.31-9.27 10.89q.08 8.26-.04 16.46-.01.51-.52.51h-7.16a.53.53 0 0 1 -.53-.53v-70.35q0-.62.62-.62h6.86q.54 0 .54.54l-.03 40.46q0 .76.55.24z" fill="#333e48"/><path d="m82.81 89.31c-8.12 9.67-7.68 22.05.49 31.36 11.28 12.85 31.48 12.01 43.28 1.03 9.85-9.17 14.14-23.27 10.96-36.51-2.85-11.87-10.41-20.79-21.05-27.2q-3.14-1.89-6.24-2.82-28.14-8.39-49.64 10.78c-2.49 2.22-4.69 5.42-7.38 7.99q-.4.38-.59.89-.84 2.27-2.77 3.64a1.29 1.29 0 0 1 -1.96-1.5c3.26-8.79 9.65-15.86 17.09-21.29 27.21-19.86 71.01-8.21 80.26 25.87 4.81 17.71.14 39.11-15.41 50.33-15.86 11.44-37.32 12.2-52.23-.91-10-8.8-15.16-23.54-11.46-36.39 4.67-16.25 18.93-26.19 36.33-22.89 13.03 2.48 22 16.48 18.51 29.25-3.06 11.2-12.72 16.87-23.96 12.5-8.45-3.28-9.56-19.64 1.44-17.91 2.78.44 2.65 2.94 3.16 5.03q.12.5.63.59 2.11.4 3.3-.85c10.69-11.2-12.48-23.22-22.76-10.99z" fill="#005aa7"/><path d="m298.38 84.19q.07 6.86.28 13.74c.13 4.14.94 7.32 5.94 6.18q.52-.12.59.41l.64 4.91q.08.59-.44.86c-5.9 3.11-13.97.92-14.66-6.62q-.81-8.83-.39-18.77a1.16 1.16 0 0 0 -1.19-1.21l-3.13.08q-.77.02-.77-.75v-5.51q0-.69.68-.65l3.79.17q.53.03.53-.5v-10.66q0-.62.63-.62h6.77a.89.89 0 0 1 .89.9l-.16 10.23q-.01.58.56.58l5.92-.04q.64-.01.64.63v5.48q0 .78-.78.76l-5.78-.14q-.56-.01-.56.54zm-60.36 18.09 3.14 3.12q.61.61-.1 1.1c-8.05 5.7-16.99 8.02-25.47 2.91-8.19-4.95-9.95-15.44-6.54-23.91 4.76-11.82 23.75-13.18 30.28-1.98q2.86 4.9 2.68 11.5-.03 1-1.02 1l-24.54-.06q-.48 0-.5.49c-.18 5.01 2.62 6.76 6.74 8.63 4.4 1.99 10.1.04 13.45-2.87a1.38 1.38 0 0 1 1.88.07zm-3.89-11.88c.1-10.91-18.06-11.56-18.27-.03q-.01.63.62.63h17.03q.61 0 .62-.6zm21.87-10.4a.37.37 0 0 0 .64.25q4.09-4.44 10.1-4.23 12.88.45 13.32 13.42.36 10.28.14 20.57-.01.49-.5.49h-6.91q-.54 0-.54-.54.02-9.38-.09-18.69c-.07-5.47-2.32-8.72-8.07-8.64-7.26.09-8.07 6.05-8.07 12.25q0 7.55-.03 15.1-.01.52-.53.52h-7.01q-.49 0-.5-.49l-.27-32.22a.83.83 0 0 1 .84-.84l6.99.07q.49.01.49.49zm82.07 26.35c-5.93 6.9-13.84 7.69-21.04 2.15-6.27-4.82-8.02-14.47-5.36-21.57 4.11-10.97 18.54-15.8 26.28-5.5q.55.73.55-.18v-3.71q0-.7.7-.71l7.13-.1q.67-.01.67.67l-.01 32.39q0 .71-.71.71h-7.15q-.63 0-.63-.62v-3.37q0-.65-.43-.16zm-9.644-1.62a10.93 9.91 90.7 0 0 10.044-10.81 10.93 9.91 90.7 0 0 -9.776-11.05 10.93 9.91 90.7 0 0 -10.042 10.808 10.93 9.91 90.7 0 0 9.775 11.05zm70.394 3.81c-10.36-6.35-9.85-26.33 2.39-30.98 7.95-3.02 18.86-2.2 23.58 5.76q6.05 10.21.09 20.53c-5.27 9.14-17.95 9.67-26.06 4.69zm1.22-18.42c-1.02 4.43-.39 10.32 3.58 13.33 4.57 3.46 7.08 3.18 11.6.2 4.45-2.94 4.89-9.91 3.64-14.46-2.83-10.4-16.45-9.34-18.82.93zm-225.82 16.33.04 21.42q.01.63-.63.63h-7.1a.53.53 0 0 1 -.53-.53v-50.5q0-.59.59-.6l6.99-.04q.76-.01.72.75l-.22 4.29q0 .14.12.22l.24.14q.2.12.31-.08c3.56-6.2 11.43-7.54 17.44-5.04 11.32 4.7 13.6 20.79 5.45 29.67-6.8 7.4-16.19 7.05-22.91-.52q-.51-.58-.51.19zm10.253-1.651a10.94 9.95 89.2 0 0 9.796-11.078 10.94 9.95 89.2 0 0 -10.102-10.8 10.94 9.95 89.2 0 0 -9.796 11.079 10.94 9.95 89.2 0 0 10.102 10.8z" fill="#333e48"/></svg>

<?xml version="1.0" encoding="UTF-8" standalone="no" ?>
<!DOCTYPE svg PUBLIC "-//W3C//DTD SVG 1.1//EN" "http://www.w3.org/Graphics/SVG/1.1/DTD/svg11.dtd">
<svg xmlns="http://www.w3.org/2000/svg" xmlns:xlink="http://www.w3.org/1999/xlink" version="1.1" width="200" height="200" viewBox="0 0 200 200" xml:space="preserve">
<desc>Created with Fabric.js 6.5.3</desc>
<defs>
</defs>
<g transform="matrix(1.9762 0 0 1.9762 99.0463 98.8915)"  >
<path style="stroke: none; stroke-width: 1; stroke-dasharray: none; stroke-linecap: butt; stroke-dashoffset: 0; stroke-linejoin: miter; stroke-miterlimit: 4; fill: rgb(0,90,167); fill-rule: nonzero; opacity: 1;"  transform=" translate(-97.4482, -93.3089)" d="M 82.81 89.31 C 74.69 98.98 75.13 111.36 83.3 120.67 C 94.58 133.52 114.78 132.68 126.58 121.7 C 136.43 112.53 140.72 98.43 137.54 85.19 C 134.69 73.32 127.13 64.4 116.49 57.99 Q 113.35 56.1 110.25 55.17 Q 82.11 46.78 60.61 65.95 C 58.12 68.17 55.92 71.37 53.23 73.94 Q 52.83 74.32 52.64 74.83 Q 51.8 77.1 49.87 78.47 C 49.4086 78.8008 48.7852 78.791 48.3344 78.446 C 47.8835 78.101 47.7113 77.5018 47.91 76.97 C 51.17 68.18 57.56 61.11 65 55.68 C 92.21 35.82 136.01 47.47 145.26 81.55 C 150.07 99.26 145.4 120.66 129.85 131.88 C 113.99 143.32 92.53 144.08 77.62 130.97 C 67.62 122.17 62.46 107.43 66.16 94.58 C 70.83 78.33 85.09 68.39 102.49 71.69 C 115.52 74.17 124.49 88.17 121 100.94 C 117.94 112.14 108.28 117.81 97.04 113.44 C 88.59 110.16 87.48 93.8 98.48 95.53 C 101.26 95.97 101.13 98.47 101.64 100.56 Q 101.76 101.06 102.27 101.15 Q 104.38 101.55 105.57 100.3 C 116.26 89.1 93.09 77.08 82.81 89.31 Z" stroke-linecap="round" />
</g>
</svg>
